img/manaSymbols/old/oldg.svg

﻿<?xml version="1.0" encoding="utf-8"?>
<svg width="600" height="600" viewBox="0 0 600 600" version="1.1" xmlns="http://www.w3.org/2000/svg" xml:space="preserve" style="fill-rule: evenodd; clip-rule: evenodd; stroke-linejoin: round; stroke-miterlimit: 2;" preserveAspectRatio="xMidYMid meet" zoomAndPan="magnify" contentScriptType="application/ecmascript" contentStyleType="text/css">
  <g id="layer1" transform="matrix(1,0,0,1,55.1373,192.501)">
    <circle cx="-265" cy="365.068" r="50" transform="matrix(6,0,0,6,1834.86,-2082.91)" />
    <path d="M299.997 0c165.575 0 300 134.424 300 300 0 165.574-134.425 300-300 300-165.574 0-300-134.426-300-300 0-165.576 134.426-300 300-300zm-104.4 476.033c6.613 7.59 21.436 17.796 32.045 17.796 5.38-4.845 6.927-17.644 9.344-24.606 13.968-40.22 2.868-74.71-30.835-100.25-7.052-5.347-30.398-20.28-39.607-17.912-7.53 1.936-9.964 10.032-16.02 14.707-4.302 2.135-8.604 4.27-12.906 6.407-3.818 4.01-2.775 11.538-7.502 15.793-8.192 7.373-18.042 13.837-26.958 19.855-6.352 4.29-7.68 13.45-18.372 13.45-5.87-2.64-4.813-8.46-7.566-12.59l-9.73-5.38v-.4c0-7.294-5.36-11.214-8.138-17.052-2.054-7.42-4.11-14.84-6.166-22.258L38.5 343.967c-3.523-19.022 9.346-35.992 11.635-54.53.626-5.068-3.762-14.61-6.168-18.94 0-29.506-2.05-43.508 26.258-56.25.493-.666 11.57-7.838 11.57-7.838.478.572.957 1.142 1.433 1.715 0 0 4.085-7.414 6.13-11.12l4.51-.285c.235-.363.47-.725.7-1.087 0-9.923-12.2-17.908-10.997-34.162l5.34-17.736c2.238-3.02 45.153-47.332 48.32-49.326 8.232-5.186 19.223-6.294 28.483-6.294 0 8.62 18.143 12.303 23.904 12.303 0 0 6.378-.87 8.173-4.1 3.562-16.03 15.638-23.638 27.718-33.304 31.097-24.877 33.62-30.727 77.056-30.727 3.75 2.155 7.504 4.31 11.254 6.466l18.755 3.72c8.98 8.08-13.247 56.26-5.214 70.725h1.145c13.22-11.883 26.45-23.767 39.67-35.65 6.994-6.292 11.062-2.515 16.595-10.815 6.13-5.518 27.524.116 35.92.116l5.342-2.576c5.9 2.655 44.948 49.88 44.948 55.676l17.483 7.954c6 19.263 11.997 38.53 17.993 57.793.87.038 1.737.077 2.606.113 3.71-3.146 7.418-6.294 11.126-9.44.32 1.372.637 2.747.954 4.12 1.73 5.45 6.24 28.75 15.26 26.72l5.148-7.494c12.484 11.235 16.297 82.528 13.67 97.905-3.095 6.54-6.19 13.083-9.282 19.626.127.056.253.114.382.17 3.262.173 6.526.345 9.79.516-.386 2.454-2.03 7.56 2.848 5.276 0 0 12.284 41.343-11.654 45.146-56.63 8.994-143.104-34.138-186.28 24.146l-6.804 18.426c-7.7 36.964-17.302 56.636 7.815 89.238 24.605 31.935 52.296-11.634 71.486-9.6 7.614.803 30.297 14.906 25.22 23.13-20.707 19.373-57.107 48.998-73.127 51.168 0 0-48.1 1.624-72.582 2.848-7.473.374-86.108-13.98-94.03-18.14-9.218-4.84-10.215-10.852-16.53-16.535-11.438 0-48.09 1.185-57.982-4.75l-8.01-12.13c4.868 0 46.014-33.355 59.12-40.122zM415.383 305.98c5.426 1.765 7.2 6.428 11.162 8.21-.03.937-.057 1.876-.087 2.814-5.79 2.018-11.58 4.038-17.372 6.058-12.766 6.758-25.456 19.186-39.65 22.668-3.87.95-14.494 7.762-18.372 5.435-8.376-15.092 31.043-30.672 37.958-38.97 5.053-7.008 10.106-14.02 15.156-21.027 8.79 0 5.675 9.013 10.294 13.172l1.635 1.452c-.24.062-.48.126-.723.188zm-174.598 37.168c6.085-4.977 4.343-14.02 4.343-20.794-10.118-9.106-28.896-7.855-42.257-7.855-1.5 0-14.68 1.206-14.68 2.188-.1.78-.2 1.564-.302 2.344 0 3.612 4.034 8.334 6.95 10.24 4.59 3.007 33.135 1.892 33.135 9.576l.216.04 1.693.782.957 1.33c0 5.067 9.554 5.294 9.554 2.11l.122-.04c.088.027.178.053.268.078zm113.938-62.46c-3.152 3.17-15.71 11.166-17.154 2.073-.783-4.927 6.318-9.107 8.554-13.133-.838-5.89-1.68-11.778-2.517-17.667 1.273-1.445 2.547-2.89 3.82-4.338 4.732-7.663 7.99-12.233 18.067-12.233 2.297 2.066 4.9 2.935 5.906 6.253l.088.547-1.563 10.435c.412 4.465 3.99 7.28 1.91 12.43 0 0-15.81 15.435-16.47 15.82-.214-.06-.43-.124-.64-.186zm-174.387-13.203c17.48 14.42 15.12 3.236 29.75 6.058 5.217 1.006 14.684 3.63 19.196-.43 3.434-9.272-4.89-5.598-8.12-11.412l-.348-10.083c-6.897-10.343-41.04.19-41.04 14.93.39.376.777.75 1.168 1.13-.202-.066-.404-.128-.605-.192zm87.977-64.06c2.932 2.97-12.533 18.48-13.234 22.903-2.25 14.17 7.227 31.343 19.413 38.656 3.833 0 7.17-3.354 6.73-7.31l-3.255-6.917c0-3.856 3.153-5.6 3.474-9.342l-2.825-13.015v-16.77c-.487-2.776-7.47-13.538-10.303-8.204zM116.19 234.264l6.994 1.64c9.78-4.398 7.283-12.96 12.462-16.688 9.513-6.85 28.534 1.035 28.534-17.588-2.284-4.11-8.757-1.598-11.986-1.017-17.964 3.232-17.07 12.866-30.314 21.38-1.763 1.134-9.578 8.188-6.342 11.1l1.448.89c-.266.094-.53.19-.796.283zm152.122-30.837-.038-.05-.298.79a5.01 5.01 0 0 1 .336-.74zm5.718-69.02c8.377 2.355 6.442 11.256 15.503 11.256 4.91-2.945 3.824-17.38 3.824-22.982-3.56-5.336-9.132-5.84-13.854-9.38l-3.822-4.965c-1.1-.092-2.2-.182-3.302-.275-4.006 2.407-5.762 18.787-3.776 22.358l6.108 4.776-.68-.79z" style="fill: rgb(194, 227, 176);" transform="matrix(1,0,0,1,-55.1373,-192.501)" />
  </g>
</svg>

<?xml version="1.0" encoding="UTF-8" standalone="no"?>
<!DOCTYPE svg PUBLIC "-//W3C//DTD SVG 1.1//EN" "http://www.w3.org/Graphics/SVG/1.1/DTD/svg11.dtd">
<svg width="600" height="600" viewBox="0 0 600 600" version="1.1" xmlns="http://www.w3.org/2000/svg" xmlns:xlink="http://www.w3.org/1999/xlink" xml:space="preserve" xmlns:serif="http://www.serif.com/" style="fill-rule:evenodd;clip-rule:evenodd;stroke-linejoin:round;stroke-miterlimit:2;">
    <g id="layer1" transform="matrix(1,0,0,1,55.1373,192.501)">
        <g transform="matrix(6,0,0,6,1834.86,-2082.91)">
            <circle cx="-265" cy="365.068" r="50"/>
        </g>
        <g transform="matrix(1,0,0,1,-55.1373,-192.501)">
            <path d="M299.997,-0.001C465.572,-0.001 599.997,134.424 599.997,299.999C599.997,465.574 465.572,599.999 299.997,599.999C134.423,599.999 -0.003,465.574 -0.003,299.999C-0.003,134.424 134.423,-0.001 299.997,-0.001ZM195.598,476.033C202.21,483.623 217.033,493.829 227.642,493.829C233.023,488.985 234.569,476.186 236.986,469.224C250.954,429.003 239.854,394.515 206.151,368.973C199.098,363.627 175.752,348.694 166.543,351.062C159.013,352.998 156.579,361.094 150.523,365.769C146.221,367.905 141.919,370.041 137.617,372.177C133.799,376.186 134.842,383.715 130.115,387.97C121.923,395.343 112.073,401.807 103.157,407.825C96.805,412.114 95.476,421.274 84.785,421.274C78.915,418.634 79.972,412.815 77.219,408.685C73.976,406.892 70.733,405.099 67.491,403.306L67.491,402.905C67.491,395.611 62.131,391.691 59.352,385.853C57.298,378.433 55.241,371.013 53.186,363.595C48.29,357.052 43.394,350.508 38.5,343.967C34.977,324.945 47.846,307.975 50.135,289.437C50.761,284.369 46.373,274.828 43.967,270.496C43.967,240.991 41.917,226.989 70.225,214.248C70.718,213.581 81.795,206.409 81.795,206.409C82.273,206.982 82.752,207.552 83.228,208.125C83.228,208.125 87.313,200.711 89.357,197.005C90.86,196.911 92.366,196.814 93.869,196.72C94.103,196.357 94.337,195.995 94.568,195.633C94.568,185.71 82.368,177.725 83.571,161.471C85.351,155.559 87.131,149.646 88.911,143.734C91.148,140.714 134.063,96.402 137.231,94.408C145.462,89.222 156.453,88.114 165.713,88.114C165.713,96.735 183.856,100.417 189.617,100.417C189.617,100.417 195.995,99.546 197.79,96.317C201.352,80.286 213.428,72.679 225.508,63.013C256.605,38.136 259.129,32.286 302.564,32.286C306.314,34.441 310.068,36.596 313.818,38.752C320.068,39.991 326.321,41.231 332.573,42.472C341.552,50.551 319.326,98.731 327.359,113.197L328.505,113.197C341.726,101.314 354.954,89.43 368.175,77.547C375.169,71.255 379.237,75.032 384.77,66.732C390.899,61.214 412.294,66.848 420.69,66.848C422.47,65.99 424.252,65.13 426.032,64.272C431.932,66.927 470.98,114.151 470.98,119.948C476.807,122.599 482.636,125.251 488.463,127.902C494.462,147.165 500.46,166.432 506.456,185.695C507.325,185.733 508.193,185.772 509.062,185.808C512.772,182.662 516.48,179.514 520.188,176.368C520.508,177.74 520.825,179.115 521.142,180.488C522.873,185.939 527.383,209.238 536.401,207.209C538.117,204.711 539.835,202.212 541.55,199.714C554.034,210.949 557.847,282.242 555.22,297.619C552.125,304.16 549.031,310.703 545.938,317.246C546.065,317.302 546.191,317.36 546.32,317.417C549.582,317.589 552.846,317.761 556.11,317.932C555.724,320.386 554.081,325.492 558.958,323.208C558.958,323.208 571.242,364.551 547.304,368.354C490.674,377.348 404.2,334.216 361.023,392.5C358.756,398.642 356.489,404.784 354.22,410.926C346.521,447.89 336.918,467.562 362.035,500.164C386.64,532.099 414.331,488.53 433.521,490.563C441.134,491.367 463.817,505.47 458.741,513.695C438.033,533.067 401.633,562.692 385.613,564.862C385.613,564.862 337.512,566.486 313.031,567.71C305.557,568.084 226.922,553.73 219,549.571C209.782,544.731 208.785,538.718 202.471,533.035C191.032,533.035 154.379,534.22 144.488,528.286C141.818,524.242 139.148,520.197 136.478,516.154C141.346,516.154 182.492,482.8 195.598,476.033ZM415.382,305.98C420.808,307.745 422.583,312.408 426.544,314.19C426.514,315.127 426.487,316.066 426.457,317.004C420.666,319.022 414.876,321.042 409.085,323.062C396.319,329.82 383.629,342.248 369.434,345.73C365.565,346.68 354.941,353.492 351.063,351.165C342.687,336.073 382.106,320.493 389.021,312.195C394.073,305.187 399.126,298.176 404.176,291.168C412.965,291.168 409.851,300.181 414.47,304.34C415.015,304.824 415.56,305.307 416.105,305.792C415.864,305.854 415.624,305.918 415.382,305.98ZM240.784,343.148C246.869,338.171 245.127,329.127 245.127,322.354C235.009,313.248 216.231,314.499 202.87,314.499C201.369,314.499 188.19,315.706 188.19,316.688C188.09,317.469 187.989,318.252 187.888,319.032C187.888,322.644 191.922,327.366 194.837,329.273C199.428,332.279 227.973,331.164 227.973,338.848C228.046,338.861 228.118,338.874 228.189,338.889C228.753,339.149 229.319,339.41 229.883,339.67C230.203,340.114 230.52,340.555 230.84,340.999C230.84,346.067 240.394,346.294 240.394,343.11C240.435,343.097 240.476,343.084 240.516,343.071C240.604,343.097 240.694,343.123 240.784,343.148ZM354.722,280.689C351.57,283.859 339.011,291.854 337.568,282.761C336.785,277.833 343.886,273.653 346.122,269.627C345.284,263.738 344.443,257.849 343.605,251.96C344.878,250.515 346.152,249.069 347.426,247.622C352.157,239.959 355.415,235.389 365.492,235.389C367.789,237.456 370.393,238.325 371.398,241.643C371.429,241.825 371.456,242.007 371.486,242.19C370.965,245.668 370.444,249.147 369.923,252.625C370.335,257.09 373.914,259.904 371.834,265.055C371.834,265.055 356.024,280.49 355.363,280.876C355.149,280.814 354.934,280.751 354.722,280.689ZM180.335,267.485C197.815,281.905 195.454,270.721 210.085,273.543C215.302,274.549 224.769,277.174 229.281,273.112C232.714,263.841 224.389,267.515 221.159,261.701C221.043,258.338 220.928,254.978 220.812,251.617C213.915,241.274 179.771,251.808 179.771,266.548C180.161,266.923 180.549,267.298 180.94,267.676C180.738,267.611 180.536,267.549 180.335,267.485ZM268.312,203.426C271.244,206.396 255.779,221.906 255.078,226.328C252.828,240.497 262.305,257.671 274.491,264.984C278.323,264.984 281.66,261.63 281.221,257.673C280.135,255.368 279.05,253.063 277.965,250.757C277.965,246.901 281.118,245.158 281.439,241.415C280.498,237.077 279.556,232.738 278.615,228.4L278.615,211.631C278.128,208.854 271.145,198.092 268.312,203.426ZM116.19,234.263C118.521,234.81 120.852,235.357 123.184,235.904C132.963,231.505 130.467,222.944 135.646,219.215C145.159,212.365 164.18,220.25 164.18,201.627C161.896,197.516 155.423,200.029 152.194,200.61C134.23,203.842 135.125,213.476 121.88,221.99C120.117,223.124 112.302,230.178 115.538,233.09C116.021,233.386 116.503,233.682 116.986,233.98C116.72,234.074 116.456,234.169 116.19,234.263ZM268.312,203.426L268.274,203.377C268.175,203.641 268.074,203.904 267.976,204.166C268.079,203.889 268.188,203.643 268.312,203.426ZM274.03,134.405C282.407,136.761 280.472,145.662 289.533,145.662C294.442,142.717 293.357,128.282 293.357,122.68C289.797,117.344 284.225,116.84 279.503,113.3C278.229,111.644 276.953,109.988 275.681,108.335C274.581,108.243 273.479,108.153 272.378,108.06C268.372,110.467 266.616,126.847 268.602,130.418C270.637,132.009 272.674,133.602 274.71,135.194C274.484,134.932 274.257,134.668 274.03,134.405Z" style="fill:rgb(194,227,176);"/>
        </g>
    </g>
</svg>
